X:1
Q:1/4=116
L:1/8
M:1/4
K:C clef=G2
V:1
%%MIDI program 52
G31/16|c2-|c31/16|A2-|
A31/16|G2-|G2-|G31/16|
G31/16|d2-|d31/16|e2-|
e31/16|c2-|c2-|c31/16|
c31/16|A2-|A31/16|B2-|
B31/16|^G2-|^G2-|^G31/16|
^G31/16|^F2-|^F2-|^F31/16|
^F31/16|E2-|E2-|E31/16|
E31/16|B2-|B31/16|c2-|
c31/32A31/32|B2-|B2-|B31/16|
G31/16|f2-|f31/16|e2-|
e31/16|d2-|d2-|d31/32e31/32|
f31/32^f31/32|g2-|g2-|g31/16|
c31/16|f2-|f2-|f31/16|
A31/16|d2-|d31/16|e31/32d31/32|
c31/32B31/32|d2-|d31/16|c31/16|
z2|[F-A-]2|[FA]31/16|[G-^A-]2|
[G^A]31/16|[A-c-]2|[A-c-]2|[Ac]31/16|
[^Ad]z/2[ce]31/64|[df]31/16|[df]31/16|[df]31/16|
[ce]z/2[^Ad]31/64|[A-f-]2|[Af]31/16|[Ac]31/16|
z2|[^A-d-]2|[^A-d-]2|[^Ad]31/32[F^A]31/32|
[F^A]31/32[^Ad]31/32|[A-f-]2|[A-f-]2|[Af]31/16|
[^Ad]31/16|[A-f-]2|[Af]31/16|[^Ae]31/32[^Ad]31/32|
[^Ae]31/32[^Ac]31/32|[A-f-]2|[A-f-]2|[Af]31/16|
G31/16
L:1/8
M:1/4
K:C clef=G2
V:2
%%MIDI program 0
G15/8|[E-G-c-]2|[EGc]7/4z7/32|[F-A-]2|
[FA]7/4z7/32|[E-G-]2|[E-G-]2|[E-G-]3/2[EG]3/16z3/8|
[EG]15/8|[F-B-d-]2|[FBd]7/4z7/32|[F-B-e-]2|
[FBe]7/4z7/32|[E-G-c-]2|[E-G-c-]2|[E-G-c-]3/2[EGc]3/16z3/8|
[EGc]15/8|[C-E-A-]2|[CEA]7/4z7/32|[D-E-B-]2|
[DEB]7/4z7/32|[B,-D-^G-]2|[B,-D-^G-]2|[B,-D-^G-]3/2[B,D^G]3/16z3/8|
[B,D^G]15/8|[A,-^D-^F-]2|[A,-^D-^F-]2|[A,-^D-^F-]3/2[A,^D^F]3/16z3/8|
[A,^D^F]15/8|[^G,-B,-E-]2|[^G,-B,-E-]2|[^G,-B,-E-]3/2[^G,B,E]3/16z3/8|
E15/8|[^G-B-]2|[^GB]7/4z7/32|[A-c-]2|
[Ac]7/8z/8[^FA]15/16|[E-^G-B-][E-^G-B-e]15/32[E-^G-B-e]15/32|[E-^G-B-e]3/4(3:2[E-^G-B-][e-E^GB]15/32[e]3/16|e15/8|
G15/8|[d-f-]2|[df]7/4z7/32|[c-e-]2|
[ce]7/4z7/32|[G-d-]2|[G-d-]2|[Gd]3/4z/4[ce]31/32|
[df]31/32[^d^f]31/32|[e-g-]2|[e-g-]2|[e-g-]3/2[eg]3/16z3/8|
c15/8|[A-f-]2|[A-f-]2|[A-f-]3/2[Af]3/16z3/8|
A15/8|[A-d-]2|[Ad]7/4z7/32|[ce]31/32[Bd]31/32|
[Gc]31/32[GB]31/32|[F-B-d-]2|[FBd]7/4z7/32|[EGc]15/16[Cc]15/32[Cc]15/32|
[Cc]15/16[Cc]15/16|[C-F-A-]2|[CFA]7/4z7/32|[C-G-^A-]2|
[CG^A]7/4z7/32|[A-c-]2|[A-c-]2|[A-c-]3/2[Ac]3/16z3/8|
[F^Ad]z/2[Fce]15/32|[F^Adf]15/8|[F^Adf]15/8|[F^Adf]15/8|
[G^Ae]z/2[F^Ad]15/32|[F-A-c-f-]2|[FAcf]31/16|[FAc]15/8|
z2|[F-^A-d-]2|[F-^A-d-]2|[F^Ad]3/4z/4[DF^A]15/16|
[DF^A]15/16[F^Ad]15/16|[F-A-c-f-]2|[F-A-c-f-]2|[F-A-c-f-]3/2[FAcf]3/16z3/8|
[F^Ad]15/8|[F-A-c-f-]2|[FAcf]7/4z7/32|[G^Ae]15/16[G^Ad]15/16|
[G^Ae]15/16[G^Ac]15/16|[F-A-c-f-]2|[F-A-c-f-]2|[F-A-c-f-]3/2[FAcf]3/16z3/8|
G15/8
L:1/8
M:1/4
K:C clef=F4
V:3
%%MIDI program 0
z2|[C,-C-]2|[C,C]7/4z7/32|[C,-C-]2|
[C,C]7/4z7/32|[C,-C-]2|[C,-C-]2|[C,-C-]3/2[C,C]3/16z3/8|
[C,C]15/8|G,2-|G,7/4z7/32|[G,,-G,-]2|
[G,,G,]7/4z7/32|[C,-G,-]2|[C,-G,-]2|[C,-G,-]3/2[C,G,]3/16z3/8|
[C,G,]15/8|[A,,-A,-]2|[A,,A,]7/4z7/32|[^G,,-^G,-]2|
[^G,,^G,]7/4z7/32|[E,-E,,][E,-E,,-]|[E,-E,,-^G,,]15/16[B,,-E,E,,]3/4[B,,]3/16|E,15/8|
[E,,E,]15/8|[B,,-][B,,-B,,,]15/16|[B,,-^D,,]15/16[^F,,-B,,]3/4[^F,,]3/16|B,,15/8|
[B,,,B,,]15/8|[E,,-E,][E,,-E,-]|[E,,-E,-B,,]15/16[^G,,-E,,E,]3/4[^G,,]3/16|E,,15/8|
E,15/8|[E,,-E,-]2|[E,,-E,-]2|[E,,-E,-]2|
[E,,-E,-]2|[E,,-E,-]2|[E,,-E,-]2|[E,,E,]z|
[F,,F,]15/8|[G,,-G,-]2|[G,,G,]7/4z7/32|[A,,-A,-]2|
[A,,A,]7/4z7/32|[B,,-B,-]2|[B,,B,]7/4z7/32|[G,,-G,-]2|
[G,,G,]7/4z7/32|[C,,-C,-]2|[C,,C,]7/4z7/32|[E,,-E,-]2|
[E,,E,]7/4z7/32|[D,,-D,-]2|[D,,D,]7/4z7/32|[F,,-F,-]2|
[F,,F,]7/4z7/32|[^F,,-^F,-]2|[^F,,^F,]7/4z7/32|[G,,-G,]31/32[G,,-^F,]31/32|
[G,,-E,]31/32[G,,D,]31/32|[G,-G,,]31/32[G,-^G,,]31/32|[G,-A,,]31/32[G,B,,]31/32|[E,C,]15/8|
z2|[F,,F,]15/16[A,,A,]15/16|[G,,G,]15/16[F,,F,]15/16|[E,,E,]15/16[C,,C,]15/16|
[D,,D,]15/16[E,,E,]15/16|[F,,F,]15/16[C,,C,]15/16|[D,,D,]15/16[E,,E,]15/16|[F,,F,]15/16[E,,E,]15/16|
[D,,D,]15/16[C,,C,]15/16|[^A,,^A,]15/16[A,,A,]15/16|[G,,G,]15/16[F,,F,]15/16|[E,,E,]15/16[D,,D,]15/16|
[C,,C,]15/16[^A,,,^A,,]15/16|[A,,,A,,]15/16[C,,C,]15/16|[F,,F,]15/16[G,,G,]15/16|[A,,A,]15/16[F,,F,]15/16|
[G,,G,]15/16[A,,A,]15/16|[^A,,^A,]15/16[C,C]15/16|[^A,,^A,]15/16[A,,A,]15/16|[G,,G,]15/16[F,,F,]15/16|
[E,,E,]15/16[D,,D,]15/16|[C,,C,]15/16[F,,F,]15/16|[E,,E,]15/16[D,,D,]15/16|[C,,C,]15/16[B,,,B,,]15/16|
[^A,,,^A,,]15/16[G,,,G,,]15/16|[C,,C,]15/16[D,,D,]15/16|[E,,E,]15/16[F,,F,]15/16|[G,,G,]15/16[A,,A,]15/16|
[^A,,^A,]15/16[C,C]15/16|[F,,-F,][F,,-F,-]|[F,,-F,-C,]15/16[A,,-F,,F,]3/4[A,,]3/16|F,,15/8|
G,15/8
Q:1/4=116
L:1/8
M:1/4
K:C clef=G2
V:1
%%MIDI program 52
c31/16|c2|A31/16|A2|
G31/16|G2-|G2|G31/16|
d31/16|d2|e31/16|e2|
c31/16|c2-|c2|c31/16|
A31/16|A2|B31/16|B2|
^G31/16|^G2-|^G2|^G31/16|
^F31/16|^F2-|^F2|^F31/16|
E31/16|E2-|E2|E31/16|
B31/16|B2|c31/16|cA31/32|
B31/16|B2-|B2|G31/16|
f31/16|f2|e31/16|e2|
d31/16|d2-|de31/32|f31/32^f31/32|
g31/16|g2-|g2|c31/16|
f31/16|f2-|f2|A31/16|
d31/16|d2|e31/32d31/32|c31/32B31/32|
d31/16|d2|c31/16|z2|
|[F-A-]192[FA]62/16|[G^A]31/16|[G^A]2|
[Ac]31/16|[A-c-]2|[Ac]2|[^Ad]z/2[ce]31/64|
[df]31/16|[df]31/16|[df]31/16|[ce]z/2[^Ad]31/64|
[Af]31/16|[Af]2|[Ac]31/16|z2|
|[^A-d-]192[^Ad]62/16|[^Ad][F^A]31/32|[F^A]31/32[^Ad]31/32|
[Af]31/16|[A-f-]2|[Af]2|[^Ad]31/16|
[Af]31/16|[Af]2|[^Ae]31/32[^Ad]31/32|[^Ae]31/32[^Ac]31/32|
L:1/8
M:1/4
K:C clef=G2
V:2
%%MIDI program 0
[EGc]31/16|[EGc]7/4(5:4z/4|[FA]31/16|[FA]7/4z/4|
[EG]31/16|[E-G-]2|[E-G-]3/2(5:4[EG]/4z/2|[EG]15/8|
[FBd]31/16|[FBd]7/4(5:4z/4|[FBe]31/16|[FBe]7/4z/4|
[EGc]31/16|[E-G-c-]2|[E-G-c-]3/2(5:4[EGc]/4z/2|[EGc]15/8|
[CEA]31/16|[CEA]7/4(5:4z/4|[DEB]31/16|[DEB]7/4z/4|
[B,D^G]31/16|[B,-D-^G-]2|[B,-D-^G-]3/2(5:4[B,D^G]/4z/2|[B,D^G]15/8|
[A,^D^F]31/16|[A,-^D-^F-]2|[A,-^D-^F-]3/2(5:4[A,^D^F]/4z/2|[A,^D^F]15/8|
[^G,B,E]31/16|[^G,-B,-E-]2|[^G,-B,-E-]3/2(5:4[^G,B,E]/4z/2|E15/8|
[^GB]31/16|[^GB]7/4(5:4z/4|[Ac]31/16|[Ac]7/8z/8[^FA]15/16|
[E-^G-B-][E-^G-B-e]15/32[E-^G-B-e]15/32|[E-^G-B-e]3/4(3:2[E-^G-B-][e-E^GB]15/32[e]3/16|e15/8|G15/8|
[df]31/16|[df]7/4(5:4z/4|[ce]31/16|[ce]7/4z/4|
[Gd]31/16|[G-d-]2|[Gd]3/4z/4[ce]31/32|[df]31/32[^d^f]31/32|
[eg]31/16|[e-g-]2|[e-g-]3/2(5:4[eg]/4z/2|c15/8|
[Af]31/16|[A-f-]2|[A-f-]3/2(5:4[Af]/4z/2|A15/8|
[Ad]31/16|[Ad]7/4(5:4z/4|[ce]31/32[Bd]31/32|[Gc]31/32[GB]31/32|
[FBd]31/16|[FBd]7/4(5:4z/4|[EGc]15/16[Cc]15/32[Cc]15/32|[Cc]15/16[Cc]15/16|
[CFA]31/16|[CFA]7/4(5:4z/4|[CG^A]31/16|[CG^A]7/4z/4|
[Ac]31/16|[A-c-]2|[A-c-]3/2(5:4[Ac]/4z/2|[F^Ad]z/2[Fce]15/32|
[F^Adf]15/8|[F^Adf]15/8|[F^Adf]15/8|[G^Ae]z/2[F^Ad]15/32|
[FAcf]31/16|[FAcf]2|[FAc]15/8|z2|
[F^Ad]31/16|[F-^A-d-]2|[F^Ad]3/4z/4[DF^A]15/16|[DF^A]15/16[F^Ad]15/16|
[FAcf]31/16|[F-A-c-f-]2|[F-A-c-f-]3/2(5:4[FAcf]/4z/2|[F^Ad]15/8|
[FAcf]31/16|[FAcf]7/4(5:4z/4|[G^Ae]15/16[G^Ad]15/16|[G^Ae]15/16[G^Ac]15/16|
L:1/8
M:1/4
K:C clef=F4
V:3
%%MIDI program 0
[C,C]31/16|[C,C]7/4(5:4z/4|[C,C]31/16|[C,C]7/4z/4|
[C,C]31/16|[C,-C-]2|[C,-C-]3/2(5:4[C,C]/4z/2|[C,C]15/8|
G,31/16|G,7/4(5:4z/4|[G,,G,]31/16|[G,,G,]7/4z/4|
[C,G,]31/16|[C,-G,-]2|[C,-G,-]3/2(5:4[C,G,]/4z/2|[C,G,]15/8|
[A,,A,]31/16|[A,,A,]7/4(5:4z/4|[^G,,^G,]31/16|[^G,,^G,]7/4z/4|
[E,-E,,][E,-E,,-]31/32|[E,-E,,-^G,,]15/16[B,,-E,E,,]3/4[B,,]3/16|E,15/8|[E,,E,]15/8|
[B,,-][B,,-B,,,]15/16|[B,,-^D,,]15/16[^F,,-B,,]3/4[^F,,]3/16|B,,15/8|[B,,,B,,]15/8|
[E,,-E,][E,,-E,-]31/32|[E,,-E,-B,,]15/16[^G,,-E,,E,]3/4[^G,,]3/16|E,,15/8|E,15/8|
[E,,E,]31/16|[E,,-E,-]2|[E,,-E,-]2|[E,,-E,-]2|
[E,,-E,-]2|[E,,-E,-]2|[E,,E,]z|[F,,F,]15/8|
[G,,G,]31/16|[G,,G,]7/4(5:4z/4|[A,,A,]31/16|[A,,A,]7/4z/4|
[B,,B,]31/16|[B,,B,]7/4(5:4z/4|[G,,G,]31/16|[G,,G,]7/4z/4|
[C,,C,]31/16|[C,,C,]7/4(5:4z/4|[E,,E,]31/16|[E,,E,]7/4z/4|
[D,,D,]31/16|[D,,D,]7/4(5:4z/4|[F,,F,]31/16|[F,,F,]7/4z/4|
[^F,,^F,]31/16|[^F,,^F,]7/4(5:4z/4|[G,,-G,]31/32[G,,-^F,]31/32|[G,,-E,]31/32[G,,D,]31/32|
[G,-G,,]31/32[G,-^G,,]31/32|[G,-A,,]31/32[G,B,,]31/32|[E,C,]15/8|z2|
[F,,F,]15/16[A,,A,]15/16|[G,,G,]15/16[F,,F,]15/16|[E,,E,]15/16[C,,C,]15/16|[D,,D,]15/16[E,,E,]15/16|
[F,,F,]15/16[C,,C,]15/16|[D,,D,]15/16[E,,E,]15/16|[F,,F,]15/16[E,,E,]15/16|[D,,D,]15/16[C,,C,]15/16|
[^A,,^A,]15/16[A,,A,]15/16|[G,,G,]15/16[F,,F,]15/16|[E,,E,]15/16[D,,D,]15/16|[C,,C,]15/16[^A,,,^A,,]15/16|
[A,,,A,,]15/16[C,,C,]15/16|[F,,F,]15/16[G,,G,]15/16|[A,,A,]15/16[F,,F,]15/16|[G,,G,]15/16[A,,A,]15/16|
[^A,,^A,]15/16[C,C]15/16|[^A,,^A,]15/16[A,,A,]15/16|[G,,G,]15/16[F,,F,]15/16|[E,,E,]15/16[D,,D,]15/16|
[C,,C,]15/16[F,,F,]15/16|[E,,E,]15/16[D,,D,]15/16|[C,,C,]15/16[B,,,B,,]15/16|[^A,,,^A,,]15/16[G,,,G,,]15/16|
[C,,C,]15/16[D,,D,]15/16|[E,,E,]15/16[F,,F,]15/16|[G,,G,]15/16[A,,A,]15/16|[^A,,^A,]15/16[C,C]15/16|
Q:1/4=77
L:1/8
M:1/4
K:C clef=G2
V:1
%%MIDI program 52
[A-f-]2|[A-f-]2|[A-f-]2|[Af]31/16
L:1/8
M:1/4
K:C clef=G2
V:2
%%MIDI program 0
[F-A-c-f-]2|[F-A-c-f-]2|[F-A-c-f-]2|[FAcf]3/2(5:4z/2
L:1/8
M:1/4
K:C clef=F4
V:3
%%MIDI program 0
[F,,-F,-]2|[F,,-F,-]2|[F,,-F,-]2|[F,,F,]3/2(5:4z/2
Q:1/4=116


